!!!!SEGMENT: pl-wnifc--6730-n--001-003_sowinski-wojciech--chants-religieux-de-la-pologne-op-93-chant-pour-la-fete-de-la-conception-o-jour-radieux.krn
!!!cenid: 18xx:4017
!!!COM: Sowiński, Wojciech
!!!COM-rismID: pe30008543
!!!CDT: ~1803-1880/03/05
!!!CNT: Polish
!!!GTL: Chants religieux de la Pologne op. 93
!!!OTL: Chant pour la fête de la conception/O jour radieux
!!!OMV: 003
!!!PDT: 1830
!!!AGN:
!!!YEC: Copyright 2022 Narodowy Instytut Fryderyka Chopina (https://polishscores.org)
!!!YEM: License CC-BY-4.0 (https://creativecommons.org/licenses/by/4.0)
!!!SMS-siglum: PL-Wnifc
!!!SMS-shelfmark: 6730/n
!!!SMS-shelfwork: 001-003 G
!!!SMS-variant:
!!!SMS-altvar:
!!!NIFC-rismSourceID: 1001138221
!!!NIFC-rismChildID: 1001138225
!!!NIFC-islandoraID: nifc:213350
!!!URL-pdf-islandora: https://repozytorium.nifc.pl/islandora/object/nifc%3A213350/datastream/PDF/view
!!!URL-scan: https://polish.musicsources.pl/pl/lokalizacje/galeria/druki-muzyczne/16913 @EN{Scan on Polish Music Sources Website} @PL{Skany w portalu Dziedzictwo Muzyki Polskiej w otwartym dostępie}
!!!IIIF:
!!!ONB-nifc: UWAGA: str. 8-11
!!!AIN: 1 calto 2 organ 2 soprn
!!!key: B-
**kern	**kern	**dynam	**kern	**text	**dynam	**kern	**text	**dynam	**kern	**text	**dynam
*part5	*part4	*	*part3	*	*	*part2	*	*	*part1	*	*
*staff5	*staff4	*	*staff3	*	*	*staff2	*	*	*staff1	*	*
*I"Organo	*I"ORGUE.	*	*I"CONTRALTO.	*	*	*I"2.e DESSUS.	*	*	*I"1.er DESSUS.	*	*
*	*I'org	*	*I'Contra-A	*	*	*I'S 2	*	*	*I'S 1	*	*
*Iorgan	*Iorgan	*	*Icalto	*	*	*Isoprn	*	*	*Isoprn	*	*
*ICklav	*ICklav	*	*ICvox	*	*	*ICvox	*	*	*ICvox	*	*
*clefF4	*clefG2	*	*clefG2	*	*	*clefG2	*	*	*clefG2	*	*
*k[b-e-]	*k[b-e-]	*	*k[b-e-]	*	*	*k[b-e-]	*	*	*k[b-e-]	*	*
*B-:	*B-:	*	*B-:	*	*	*B-:	*	*	*B-:	*	*
*M4/4	*M4/4	*	*M4/4	*	*	*M4/4	*	*	*M4/4	*	*
*met(c)	*met(c)	*	*met(c)	*	*	*met(c)	*	*	*met(c)	*	*
=1	=1	=1	=1	=1	=1	=1	=1	=1	=1	=1	=1
!	!LO:TX:a:B:t=Allegro.	!	!	!	!	!	!	!	!LO:TX:a:B:t=Allegro	!	!
2B-\ 2d	(4.b-/	p	1r	.	.	1r	.	.	1r	.	.
.	8f/)	.	.	.	.	.	.	.	.	.	.
4B-\ 4d	4b-\	.	.	.	.	.	.	.	.	.	.
4F\ 4c	4cc\	.	.	.	.	.	.	.	.	.	.
=2	=2	=2	=2	=2	=2	=2	=2	=2	=2	=2	=2
4.B-\	(4.dd\	<	1r	.	.	1r	.	.	1r	.	.
8A\	8f\) 8cc	.	.	.	.	.	.	.	.	.	.
4B-\	4b-\ 4dd	.	.	.	.	.	.	.	.	.	.
4F\	4cc\ 4ee-	[[	.	.	.	.	.	.	.	.	.
=3	=3	=3	=3	=3	=3	=3	=3	=3	=3	=3	=3
(2BB-\ 2B-	(2dd\ 2ff	>	1r	.	.	1r	.	.	1r	.	.
4C\	4cc\ 4ee-	.	.	.	.	.	.	.	.	.	.
8D\L	4b-\) 4dd	]	.	.	.	.	.	.	.	.	.
8E-\J)	.	.	.	.	.	.	.	.	.	.	.
=4	=4	=4	=4	=4	=4	=4	=4	=4	=4	=4	=4
4..F\	4..f/ 4..a 4..cc	.	1r	.	.	1r	.	.	1r	.	.
16BB-\ 16B-	16d/ 16f 16b-	p	.	.	.	.	.	.	.	.	.
2BB-\ 2B-	2d/ 2f 2dd	.	.	.	.	.	.	.	.	.	.
=5	=5	=5	=5	=5	=5	=5	=5	=5	=5	=5	=5
!	!	!	!	!	!LO:DY:a	!	!	!LO:DY:a	!	!	!LO:DY:a
2BB-\ 2B-	(4.d/ 4.b-	pp	4.d/	O	pp	4.f/	O	pp	4.b-\	O	pp
.	8d/ 8f	.	8d/	jour	.	8f/	jour	.	8f/	jour	.
4BB-\ 4B-	4d/ 4f 4b-	.	4d/	ra-	.	4f/	ra-	.	4b-\	ra-	.
4F\	4f/) 4a 4cc	.	4e-/	-di	.	4a/	-di-	.	4cc\	-di-	.
!LO:LB:g=original	!LO:LB:g=original	!	!LO:LB:g=original	!	!	!LO:LB:g=original	!	!	!LO:LB:g=original	!	!
=6	=6	=6	=6	=6	=6	=6	=6	=6	=6	=6	=6
2BB-\ 2B-	(4.f/ 4.b- 4.dd	.	4.B-/	-eux	.	4.b-\	-eux	.	4.dd\	-eux	.
!	!	!	!	!	!LO:DY:a	!	!	!LO:DY:a	!	!	!LO:DY:a
.	8f/ 8a 8cc	.	8f/	o	<	8a/	o	<	8cc\	o	<
4BB-\ 4B-	4f/ 4b- 4dd	.	4f/	jour	.	4b-\	jour	.	4dd\	jour	.
4BB-\ 4B-	4f/) 4cc 4ee-	.	4f/	de	[[	4cc\	de	[[	4ee-\	de	[[
=7	=7	=7	=7	=7	=7	=7	=7	=7	=7	=7	=7
2BB-\ 2B-	(2f\ 2dd 2ff	.	2B-^>/	paix	.	2dd^\	paix	.	2ff^\	paix	.
4BB-\ 4A	4f\ 4cc 4ee-	.	4f/	fè-	.	4cc\	fè-	.	4ee-\	fè-	.
4BB-\ 4B-	4f\) 4b- 4dd	.	8b-\	-te	.	8b-\	-te	.	8dd\	-te	.
.	.	.	8b-\	bé-	.	8b-\	bé-	.	8dd\	bé-	.
=8	=8	=8	=8	=8	=8	=8	=8	=8	=8	=8	=8
!	!	!	!	!	!LO:DY:a	!	!	!LO:DY:a	!	!	!LO:DY:a
4FF/ 4F	(4f/ 4cc 4ee-	.	2f/	-ni-	<	(4cc\	-ni-	<	(4ee-\	-ni-	<
4FF/ 4F	4f/ 4b- 4dd	.	.	.	.	4b-\)	.	.	4dd\)	.	.
2FF/ 2F	4f/ 4a 4cc	.	2f/	-e	[[	2a/	-e	[[	2cc\	-e	[[
.	4f/)	.	.	.	.	.	.	.	.	.	.
=9	=9	=9	=9	=9	=9	=9	=9	=9	=9	=9	=9
!	!LO:TX:b:i:t=sempre.	!	!	!	!LO:DY:a	!	!	!LO:DY:a	!	!	!LO:DY:a
2BBB-/ 2BB-	(4.d/ 4.b-	.	4.d/	Ou	pp	4.b-/	Ou	pp	4.b-\	Ou	pp
.	8d/ 8f	.	8d/	l`an-	.	8f/	l`an-	.	8f/	l`an-	.
4BB-\ 4B-	4d/ 4f 4b-	pp	4d/	-ge	.	4f/	-ge	.	4b-\	-ge	.
4F\	4f/) 4a 4cc	.	4e-/	des	.	4a/	des	.	4cc\	des	.
=10	=10	=10	=10	=10	=10	=10	=10	=10	=10	=10	=10
2BB-\ 2B-	(4.f/ 4.b- 4.dd	.	4.B-/	cieux	.	4.f/	cieux	.	4.dd\	cieux	.
!	!	!	!	!	!LO:DY:a	!	!	!LO:DY:a	!	!	!LO:DY:a
.	8f/ 8a 8cc	<	8f/	po-	<	8a/	po-	<	8cc\	po-	<
4BB-\ 4B-	4f/ 4b- 4dd	.	4f/	-sa	.	4dd\	-sa	.	4dd\	-sa	.
4BB-\ 4B-	4f/) 4cc 4ee-	[[	4f/	son	[[	4ee-\	son	[[	4ee-\	son	[[
!LO:LB:g=original	!LO:LB:g=original	!	!LO:LB:g=original	!	!	!	!LO:LB:g=original	!	!	!LO:LB:g=original	!
=11	=11	=11	=11	=11	=11	=11	=11	=11	=11	=11	=11
(2BB-\ 2B-	(2f\ 2dd 2ff	>	2B-^>/	vol	.	2b-^\	vol	.	2ff^\	vol	.
4BB-'\ 4A	4f'\ 4cc 4ee-	.	4f/	près	.	4cc\	près	.	4ee-\	près	.
4BB-'\ 4B-	4f'\ 4b- 4dd	]	8b-/	de	.	8b-\	de	.	8dd\	de	.
.	.	.	8b-/	Ma-	.	8b-\	Ma-	.	8dd\	Ma-	.
=12	=12	=12	=12	=12	=12	=12	=12	=12	=12	=12	=12
4F\ 4A	4f'\ 4cc 4ee-	.	2f/	-ri-	.	(4cc\	-ri-	.	(4ee-\	-ri-	.
4F\) 4B-	4f'\) 4b- 4dd	.	.	.	.	4b-\)	.	.	4dd\)	.	.
2FF^/ 2F	2f^\ 2a 2cc	.	2f/	-e	.	2a/	-e	.	2cc\	-e	.
=13||	=13||	=13||	=13||	=13||	=13||	=13||	=13||	=13||	=13||	=13||	=13||
!	!	!	!	!	!LO:DY:a	!	!	!LO:DY:a	!LO:TX:a:i:t=sempre	!	!
4BB-/	(4.f\ 4.dd 4.ff	pp	4.B-/	L`é-	pp	4.dd\	L`é-	pp	4.ff\	L`é-	.
4F\	.	.	.	.	.	.	.	.	.	.	.
!	!	!	!	!	!	!	!	!	!	!	!LO:DY:a
.	8f\ 8cc 8ee-	.	8f/	-toi-	.	8cc\	-toi-	.	8ee-\	-toi-	pp
4B-\	4f\ 4b- 4dd	.	4f/	-le	.	4b-\	-le	.	4dd\	-le	.
4F\	4f\) 4dd 4ff	.	4f/	qui	.	4dd\	qui	.	4ff\	qui	.
=14	=14	=14	=14	=14	=14	=14	=14	=14	=14	=14	=14
4BB-/	(4.f\ 4.cc 4.ee-	.	4.f/	luit	.	4.cc\	luit	.	4.ee-\	luit	.
4F\	.	.	.	.	.	.	.	.	.	.	.
.	8f\ 8b- 8dd	.	8f/	sur	.	8b-\	sur	.	8dd\	sur	.
4A\	2f\) 2cc 2ee-	.	2f/	nous	.	2cc\	nous	.	2ee-\	nous	.
4F\	.	.	.	.	.	.	.	.	.	.	.
=15	=15	=15	=15	=15	=15	=15	=15	=15	=15	=15	=15
!	!	!	!	!	!LO:DY:a	!	!	!LO:DY:a	!	!	!LO:DY:a
4BB-/	(4.b-\ 4.dd	<	4.b-/	les	<	4.b-\	les	<	4.dd\	les	<
4F\	.	.	.	.	.	.	.	.	.	.	.
.	8cc\ 8ee-	.	8f/	par-	.	8cc\	par-	.	8ee-\	par-	.
4BB-\ 4B-	4dd\ 4ff	[	4d/	-fums	[	4dd\	-fums	[	4ff\	-fums	[
4E-\	4cc\) 4ee-	.	4e-/	de	.	4cc\	de	.	4ee-\	de	.
!LO:LB:g=original	!LO:LB:g=original	!	!LO:LB:g=original	!	!	!LO:LB:g=original	!	!	!LO:LB:g=original	!	!
=16	=16	=16	=16	=16	=16	=16	=16	=16	=16	=16	=16
2F\	(4.a\ 4.cc	<	4.f/	la	.	4.a/	la	.	4.cc\	la	.
.	8g\ 8b-	.	8f/	prai-	.	8g/	prai-	.	8b-\	prai-	.
4F\	2a\) 2cc	[ > ]]	4f/	-ri-	.	4a/	-ri-	.	4cc\	-ri-	.
4FF/	.	.	4f/	-e	.	4a/	-e	.	4cc\	-e	.
=17	=17	=17	=17	=17	=17	=17	=17	=17	=17	=17	=17
!	!	!	!	!	!LO:DY:a	!	!	!LO:DY:a	!	!	!LO:DY:a
4BB-/	4.d/ 4.b-	p	4.d/	sont	p	4.f/	sont	p	4.b-/	sont	p
4F\	.	.	.	.	.	.	.	.	.	.	.
.	(8d/ 8f	.	8d/	moins	.	8f/	moins	.	8f/	moins	.
4B-\	4d/ 4b-	.	4d/	beaux	.	4f/	beaux	.	4b-\	beaux	.
4F\	4f/ 4cc	.	4e-/	moins	.	4f/	moins	.	4cc\	moins	.
=18	=18	=18	=18	=18	=18	=18	=18	=18	=18	=18	=18
!	!	!	!	!	!LO:DY:a	!	!	!LO:DY:a	!	!	!LO:DY:a
4BB-/	4.b-\) 4.dd	<	2B-/	doux	<	(4.b-/	doux	<	(4.dd\	doux	<
4F\	.	.	.	.	.	.	.	.	.	.	.
.	8f\ 8cc	.	.	.	.	8a/)	.	.	8cc\)	.	.
4B-\	4b-\ 4dd	.	2B-/	que	[[	(4b-\	que	.	(4dd\	que	.
4F\	4cc\ 4ee-	[	.	.	.	4cc\)	.	[[	4ee-\)	.	[[
=19	=19	=19	=19	=19	=19	=19	=19	=19	=19	=19	=19
2BBB-^/ 2BB-	2dd^\ 2ff	.	2B-^>/	vous	.	2dd^\	vous	.	2ff^\	vous	.
4CC/ 4C	4cc\ 4ee-	.	4c/	ô	.	4cc\	ô	.	4ee-\	ô	.
!	!LO:TX:b:i:t=rall.	!	!LO:TX:a:i:t=rall.	!	!	!LO:TX:a:i:t=rall.	!	!	!LO:TX:a:i:t=rall.	!	!
8DD/L 8D	4b-\ 4dd	.	(8d/L	Ma-	.	4b-\	Ma-	.	4dd\	Ma-	.
8EE-/J 8E-	.	.	8e-/J)	.	.	.	.	.	.	.	.
=20	=20	=20	=20	=20	=20	=20	=20	=20	=20	=20	=20
*^	*	*	*	*	*	*	*	*	*	*	*
4F/	2FF\	((2a/ 2cc	>	(4f/	-ri-	.	2a^>/	-ri-	.	2cc^\	-ri-	.
4E-/	.	.	.	4e-/)	.	.	.	.	.	.	.	.
!	!	!	!	!	!	!LO:DY:a	!	!	!LO:DY:a	!	!	!LO:DY:a
2D\	2BB-\	2f/)) 2b-	]	2d/	-e	p	2b-/	-e	p	2b-\	-e	p
!LO:LB:g=original	!LO:LB:g=original	!LO:LB:g=original	!	!LO:LB:g=original	!	!	!LO:LB:g=original	!	!	!LO:LB:g=original	!	!
*v	*v	*	*	*	*	*	*	*	*	*	*	*
=21	=21	=21	=21	=21	=21	=21	=21	=21	=21	=21	=21
2FF/ 2F	4.a/ 4.cc	f	1ryy	.	.	1ryy	.	.	1ryy	.	.
.	(8f/	<	.	.	.	.	.	.	.	.	.
4EE-/ 4E-	4f/ 4a 4cc	.	.	.	.	.	.	.	.	.	.
4DD/ 4D	4f/) 4bn 4dd	[[	.	.	.	.	.	.	.	.	.
=22	=22	=22	=22	=22	=22	=22	=22	=22	=22	=22	=22
4.CC/ 4.C	(4.e-\ 4.cc 4.ee-	.	1ryy	.	.	1ryy	.	.	1ryy	.	.
8BBn/	8dd\	.	.	.	.	.	.	.	.	.	.
4C/	4ee-\	.	.	.	.	.	.	.	.	.	.
4BB-X/	4dd\)	.	.	.	.	.	.	.	.	.	.
=23	=23	=23	=23	=23	=23	=23	=23	=23	=23	=23	=23
8AA/L	4cc\	.	1ryy	.	.	1ryy	.	.	1ryy	.	.
8BB-/J	.	.	.	.	.	.	.	.	.	.	.
4C/	4f/ 4a	.	.	.	.	.	.	.	.	.	.
4CC/	4.g/ 4.b-	>	.	.	.	.	.	.	.	.	.
4C/	.	.	.	.	.	.	.	.	.	.	.
.	8en/ 8g	]]	.	.	.	.	.	.	.	.	.
=24	=24	=24	=24	=24	=24	=24	=24	=24	=24	=24	=24
[2FF/ [2C	((2B-/ 2en 2g	p	1ryy	.	.	1ryy	.	.	1ryy	.	.
4FF/] 4C]	4A/)) 4f	.	.	.	.	.	.	.	.	.	.
4r	4r	.	.	.	.	.	.	.	.	.	.
!LO:PB:g=original	!LO:PB:g=original	!	!	!LO:PB:g=original	!	!	!LO:PB:g=original	!	!	!LO:PB:g=original	!
==25	==25	==25	==25	==25	==25	==25	==25	==25	==25	==25	==25
!	!	!	!	!	!	!	!	!LO:DY:a	!LO:TX:a:t=2.e STROPHE.	!	!LO:DY:a
4r	4.d/ 4.b-	p	1r	.	.	4.d/	E-	p	4.b-/	E-	p
(4B-\	.	.	.	.	.	.	.	.	.	.	.
.	(8f/	.	.	.	.	8d/	-tou-	.	8f/	-tou-	.
4BB-/)	4d/ 4b-	.	.	.	.	4d/	-le	.	4b-\	-le	.
4r	4f/) 4cc	.	.	.	.	4f/	des	.	4cc\	des	.
=26	=26	=26	=26	=26	=26	=26	=26	=26	=26	=26	=26
4r	4.b-\ 4.dd	.	1r	.	.	4.b-/	mers	.	4.dd\	mers	.
(4B-\	.	.	.	.	.	.	.	.	.	.	.
.	8f\ 8cc	.	.	.	.	8f/	qui	.	8cc\	qui	.
4BB-/)	4b-\ 4dd	.	.	.	.	4b-\	vous	.	4dd\	vous	.
4r	4cc\ 4ee-	.	.	.	.	4cc\	ca-	.	4ee-\	ca-	.
=27	=27	=27	=27	=27	=27	=27	=27	=27	=27	=27	=27
4r	(2dd^\ 2ff	.	2r	.	.	2dd^\	-chez	.	2ff^\	-chez	.
(4B-\	.	.	.	.	.	.	.	.	.	.	.
!	!	!	!	!	!LO:DY:a	!	!	!	!	!	!
4F\	4cc\ 4ee-	.	4f/	sous	p	4cc\	sous	.	4ee-\	sous	.
4BB-/)	4b-\) 4dd	.	8B-/	le	.	8b-\	le	.	8dd\	le	.
.	.	.	8d/	nu-	.	8b-\	nu-	.	8dd\	nu-	.
=28	=28	=28	=28	=28	=28	=28	=28	=28	=28	=28	=28
2FF/	(4cc\ 4ee-	.	2f/	-a-	.	(4cc\	-a-	.	(4ee-\	-a-	.
.	4b-\ 4dd	.	.	.	.	4b-\)	.	.	4dd\)	.	.
2F\	2a^\) 2cc	.	2f/	-ge	.	2a\	-ge	.	2cc\	-ge	.
=29	=29	=29	=29	=29	=29	=29	=29	=29	=29	=29	=29
4r	4.d/ 4.b-	.	1r	.	.	4.d/	sur	.	4.b-/	sur	.
4B-\	.	.	.	.	.	.	.	.	.	.	.
.	(8f/	.	.	.	.	8d/	les	.	8f/	les	.
4BB-/	4d/ 4b-	.	.	.	.	4d/	flot	.	4b-\	flot	.
4r	4f/) 4cc	.	.	.	.	4f/	sa	.	4cc\	sa-	.
!LO:LB:g=original	!LO:LB:g=original	!	!LO:LB:g=original	!	!	!LO:LB:g=original	!	!	!LO:LB:g=original	!	!
=30	=30	=30	=30	=30	=30	=30	=30	=30	=30	=30	=30
4r	4.b-\ 4.dd	.	4.r	.	.	4.b-\	-mers	.	4.dd\	-mers	.
(4B-\	.	.	.	.	.	.	.	.	.	.	.
!	!	!	!	!	!LO:DY:a	!	!	!	!	!	!
.	(8f\ 8a 8cc	.	8f/	pro-	p	8a\	pro-	.	8cc\	pro-	.
4BB-/)	4f\ 4b- 4dd	.	4f/	-te-	.	4b-\	-te-	.	4dd\	-te-	.
4r	4f\) 4cc 4ee-	.	4f/	-gez	.	4cc\	-gez	.	4ee-\	-gez	.
=31	=31	=31	=31	=31	=31	=31	=31	=31	=31	=31	=31
4r	(2f\ 2dd 2ff	>	2B-^>/	nous	.	2dd^\	nous	.	2ff^\	nous	.
4B-\	.	.	.	.	.	.	.	.	.	.	.
4F\	4f\ 4cc 4ee-	.	4B-/	aux	.	4cc\	aux	.	4ee-\	aux	.
4BB-/	4f\) 4b- 4dd	]	8B-/	jour	.	8b-\	jour	.	8dd\	jour	.
.	.	.	8d/	d`o-	.	8b-\	d`o-	.	8dd\	d`o-	.
=32	=32	=32	=32	=32	=32	=32	=32	=32	=32	=32	=32
2FF/	4f\ 4cc 4ee-	.	2f/	-ra-	.	(4cc\	-ra-	.	(4ee-\	-ra-	.
.	4f\ 4b- 4dd	.	.	.	.	4b-\)	.	.	4dd\)	.	.
2F\	2f\ 2a 2cc	p	2f/	-ge	.	2a\	-ge	.	2cc\	-ge	.
=33||	=33||	=33||	=33||	=33||	=33||	=33||	=33||	=33||	=33||	=33||	=33||
!	!	!	!	!	!	!	!	!LO:DY:a	!	!	!LO:DY:a
4r	(4.dd\ 4.ff	pp	1r	.	.	4.dd\	con-	p	4.ff\	con-	p
4BBB-/ 4BB-	.	.	.	.	.	.	.	.	.	.	.
.	8cc\ 8ee-	.	.	.	.	8cc\	-dui-	.	8ee-\	-dui-	.
4r	4b-\ 4dd	.	.	.	.	4b-\	-sez	.	4dd\	-sez	.
4BBB-/ 4BB-	4dd\) 4ff	.	.	.	.	4dd\	nos	.	4ff\	nos	.
=34	=34	=34	=34	=34	=34	=34	=34	=34	=34	=34	=34
4r	(4.cc\ 4.ee-	.	1r	.	.	4.cc\	pas	.	4.ee-\	pas	.
4FF/	.	.	.	.	.	.	.	.	.	.	.
.	8b-\ 8dd	.	.	.	.	8b-\	trem-	.	8dd\	trem-	.
2F\	2cc\) 2ee-	.	.	.	.	2cc\	-blants	.	2ee-\	-blants	.
!LO:LB:g=original	!LO:LB:g=original	!	!	!LO:LB:g=original	!	!LO:LB:g=original	!	!	!LO:LB:g=original	!	!
=35	=35	=35	=35	=35	=35	=35	=35	=35	=35	=35	=35
!	!	!	!	!	!LO:DY:a	!	!	!	!	!	!
4.BB-/	(4.f\ 4.ff	.	4.B-/	dans	p	4.f/	dans	.	4.dd\	dans	.
8C/	8f\ 8a 8ee-	.	8c/	les	.	8f/	les	.	8ee-\	les	.
4D/	4f\ 4b- 4ff	.	4d/	sen-	.	4f/	sen-	.	4ff\	sen-	.
4E-/	4f\) 4cc 4ee-	.	4e-/	-tiers	.	4g/	-tiers	.	4ee-\	-tiers	.
=36	=36	=36	=36	=36	=36	=36	=36	=36	=36	=36	=36
2F\	(4.a/ 4.cc	<	4.f/	de	.	4.a/	de	.	4.cc\	de	.
.	8g/ 8b-	.	8f/	la	.	8g/	la	.	8b-\	la	.
2FF/	2a/) 2cc	[[	4f/	vi-	.	4a/	vi-	.	4cc\	vi-	.
.	.	.	4e-/	-e	.	4a/	-e	.	4cc\	-e	.
=37	=37	=37	=37	=37	=37	=37	=37	=37	=37	=37	=37
4r	4.d/ 4.b-	p	4.d/	Ne	.	4.f/	Ne	.	4.b-/	Ne	.
(4B-\	.	.	.	.	.	.	.	.	.	.	.
.	(8f/	.	8d/	som	.	8f/	som	.	8f/	som	.
4BB-/)	4d/ 4b-	.	4d/	mes	.	4f/	mes	.	4b-\	mes	.
4r	4f/ 4cc	.	4e-/	nous	.	4f/	nous	.	4cc\	nous	.
=38	=38	=38	=38	=38	=38	=38	=38	=38	=38	=38	=38
4r	4.b-\) 4.dd	.	2B-/	pas	.	(4.f/	pas	.	(4.dd\	pas	.
(4B-\	.	.	.	.	.	.	.	.	.	.	.
.	(8f\ 8cc	.	.	.	.	8a/)	.	.	8cc\)	.	.
4BB-/)	4b-\ 4dd	.	4B-/	vos	.	4b-/	vos	.	4dd\	vos	.
4r	4cc\) 4ee-	.	4B-/	en-	.	4cc/	en-	.	4ee-\	en-	.
=39	=39	=39	=39	=39	=39	=39	=39	=39	=39	=39	=39
4r	(2dd^<\ 2ff	.	2B-^>/	-fants	.	2dd^\	-fants	.	2ff^\	-fants	.
4B-\	.	.	.	.	.	.	.	.	.	.	.
!	!LO:TX:b:i:t=rall.	!	!LO:TX:a:i:t=rall.	!	!	!LO:TX:a:i:t=rall.	!	!	!LO:TX:a:i:t=rall.	!	!
4F\	4cc\ 4ee-	.	4c/	ô	.	4cc\	ô	.	4ee-\	ô	.
4BB-/	4b-\) 4dd	.	8d/L	Ma-	.	4b-\	Ma-	.	4dd\	Ma-	.
.	.	.	8e-/J	.	.	.	.	.	.	.	.
=40	=40	=40	=40	=40	=40	=40	=40	=40	=40	=40	=40
*^	*	*	*	*	*	*	*	*	*	*	*
(4F/	2FF\	(2a^/ 2cc	.	(4f/	-ri-	.	2a\	-ri-	.	2cc\	-ri-	.
4D/	.	.	.	4e-/)	.	.	.	.	.	.	.	.
!	!	!	!	!	!	!LO:DY:a	!	!	!LO:DY:a	!	!	!LO:DY:a
2D/)	2BB-/	2f/) 2b-	p	2d/	-e	p	2b-\	-e	p	2b-\	-e	p
!LO:LB:g=original	!LO:LB:g=original	!LO:LB:g=original	!	!LO:LB:g=original	!	!	!LO:LB:g=original	!	!	!LO:LB:g=original	!	!
*v	*v	*	*	*	*	*	*	*	*	*	*	*
==41	==41	==41	==41	==41	==41	==41	==41	==41	==41	==41	==41
!	!	!	!	!	!LO:DY:a	!	!	!LO:DY:a	!LO:TX:a:t=3.me STROPHE.	!	!
4BB-/	(8b-/L	p	4.d/	Dun	p	4.b-/	Dun	p	1r	.	.
.	8f/	.	.	.	.	.	.	.	.	.	.
2B-\	8d/	.	.	.	.	.	.	.	.	.	.
.	8d/J	.	8d/	ra-	.	8f/	ra-	.	.	.	.
.	8b-/L	.	4d/	-yon	.	4b-\	-yon	.	.	.	.
.	8f/	.	.	.	.	.	.	.	.	.	.
4F\	8cc/	.	4f/	des	.	4cc\	des	.	.	.	.
.	8f/J)	.	.	.	.	.	.	.	.	.	.
=42	=42	=42	=42	=42	=42	=42	=42	=42	=42	=42	=42
4BB-/	8dd/L	.	4.b-/	Cieux	.	4.dd\	Cieux	.	1r	.	.
.	8f/	.	.	.	.	.	.	.	.	.	.
4F\	8r	.	.	.	.	.	.	.	.	.	.
.	8f/J	.	8f/	l`es	.	8cc\	l`es	.	.	.	.
4B-\	(8b-/L 8dd	.	4b-\	sprit	.	4dd\	sprit	.	.	.	.
.	8f/	.	.	.	.	.	.	.	.	.	.
4F\	8cc/ 8ee-	.	4cc\	di-	.	4ee-\	di-	.	.	.	.
.	8f/J)	.	.	.	.	.	.	.	.	.	.
=43	=43	=43	=43	=43	=43	=43	=43	=43	=43	=43	=43
4r	2f^<\ 2dd 2ff	.	4b-/	-vin	.	4dd\	-vin	.	4r	.	.
4BB-\ 4B-	.	.	4f/	Vous	.	4dd\	Vous	.	4ff\	Vous	.
4BB-\ 4A	4f\ 4cc 4ee-	.	4f/	a	.	4cc\	a	.	4ee-\	a	.
4BB-\ 4B-	4f\ 4b- 4dd	.	4f/	for-	.	4b-\	for-	.	4dd\	for-	.
=44	=44	=44	=44	=44	=44	=44	=44	=44	=44	=44	=44
[2F\	(8cc\L	.	2f/	-mé-	.	(4cc\	-mé-	.	(4ee-\	-mé-	.
.	8a\	.	.	.	.	.	.	.	.	.	.
.	8b-\	.	.	.	.	4b-\)	.	.	4dd\)	.	.
.	8dd\J	.	.	.	.	.	.	.	.	.	.
4F\]	8cc/L	.	2f/	-e	.	2a/	-e	.	2cc\	-e	.
.	8a/	.	.	.	.	.	.	.	.	.	.
4r	8f/	.	.	.	.	.	.	.	.	.	.
.	8e-/J)	.	.	.	.	.	.	.	.	.	.
=45	=45	=45	=45	=45	=45	=45	=45	=45	=45	=45	=45
4BB-/	(8d/L	.	2d/	Et	.	(4.b-/	Et	.	1r	.	.
.	8f/	.	.	.	.	.	.	.	.	.	.
2B-\	8b-/	.	.	.	.	.	.	.	.	.	.
.	8f/J	.	.	.	.	8f/)	.	.	.	.	.
.	8b-/L	.	4d/	l`an-	.	4b-\	l`an-	.	.	.	.
.	8f/	.	.	.	.	.	.	.	.	.	.
4F\	8cc/	.	4f/	-ge	.	4cc\	-ge	.	.	.	.
.	8f/J)	.	.	.	.	.	.	.	.	.	.
!LO:LB:g=original	!LO:LB:g=original	!	!LO:LB:g=original	!	!	!LO:LB:g=original	!	!	!LO:LB:g=original	!	!
=46	=46	=46	=46	=46	=46	=46	=46	=46	=46	=46	=46
4BB-\	8dd/L	.	(4.b-/	à	.	(4.dd\	à	.	1r	.	.
.	8f/	.	.	.	.	.	.	.	.	.	.
4F\	8r	.	.	.	.	.	.	.	.	.	.
.	8f/J	.	8f/)	.	.	8cc\)	.	.	.	.	.
4B-\	(8b-\L 8dd	.	4b-\	vos	.	4dd\	vos	.	.	.	.
.	8f\	.	.	.	.	.	.	.	.	.	.
4F\	8cc\ 8ee-	.	4cc\	ge-	.	4ee-\	ge-	.	.	.	.
.	8f\J	.	.	.	.	.	.	.	.	.	.
=47	=47	=47	=47	=47	=47	=47	=47	=47	=47	=47	=47
4r	2f^/) 2dd 2ff	.	4b-/	-noux	.	4dd\	-noux	.	4r	.	.
4BB-\ 4B-	.	.	4f/	vous	.	4dd\	vous	.	4ff\	vous	.
4BB-\ 4A	4f/ 4cc 4ee-	.	4f/	a	.	4cc\	a	.	4ee-\	a	.
4BB-\ 4B-	4f/ 4b- 4dd	.	4f/	nom-	.	4b-\	nom-	.	4dd\	nom-	.
=48	=48	=48	=48	=48	=48	=48	=48	=48	=48	=48	=48
2F\	4f/ 4cc 4ee-	.	2f/	-mé-	.	(4cc\	-mé-	.	(4ee-\	-mé-	.
.	4f/ 4b- 4dd	.	.	.	.	4b-\)	.	.	4dd\)	.	.
2F\	8a/L 8cc	.	2f/	-e	.	2a/	-e	.	2cc\	-e	.
.	8f/	.	.	.	.	.	.	.	.	.	.
.	8en/	.	.	.	.	.	.	.	.	.	.
.	8f/J	.	.	.	.	.	.	.	.	.	.
=49	=49	=49	=49	=49	=49	=49	=49	=49	=49	=49	=49
!	!	!	!	!	!LO:DY:a	!	!	!LO:DY:a	!	!	!
4BB-/	(8dd\L 8ff	mf	4.f/	Gloire	mf	4.dd\	Gloire	mf	1r	.	.
.	8f\	.	.	.	.	.	.	.	.	.	.
4D\	8dd\ 8ff	.	.	.	.	.	.	.	.	.	.
.	8cc\J) 8ee-	.	8e-/	ô	.	8cc\	ô	.	.	.	.
4F\	8b-\L 8dd	.	4d/	Mè-	.	4b-\	Mè-	.	.	.	.
.	8f\	.	.	.	.	.	.	.	.	.	.
4B-\	8r	.	4f/	-re	.	4dd\	-re	.	.	.	.
.	8f\J	.	.	.	.	.	.	.	.	.	.
=50	=50	=50	=50	=50	=50	=50	=50	=50	=50	=50	=50
4BB-/	(8cc\L 8ee-	.	4e-/	du	.	4cc\	du	.	1r	.	.
.	8f\	.	.	.	.	.	.	.	.	.	.
4E-\	8cc\ 8ee-	.	4d/	sauve-	.	4b-\	sauve-	.	.	.	.
.	8b-\J) 8dd	.	.	.	.	.	.	.	.	.	.
4F\	8a\L 8cc	.	2e-/	-ur	.	2cc\	-ur	.	.	.	.
.	8f\	.	.	.	.	.	.	.	.	.	.
4A\	8r	.	.	.	.	.	.	.	.	.	.
.	8f\J	.	.	.	.	.	.	.	.	.	.
!LO:LB:g=original	!LO:LB:g=original	!	!LO:LB:g=original	!	!	!LO:LB:g=original	!	!	!LO:LB:g=original	!	!
=51	=51	=51	=51	=51	=51	=51	=51	=51	=51	=51	=51
4BB-/	(8b-\L 8dd	.	4.d/	gloire	.	4.b-\	gloire	.	1r	.	.
.	8f\	.	.	.	.	.	.	.	.	.	.
4F\	8dd\ 8ff	.	.	.	.	.	.	.	.	.	.
.	8cc\J) 8ee-	.	8e-/	a	.	8cc\	a	.	.	.	.
4B-\	4b-\ 4dd	.	4f/	vous	.	4dd\	vous	.	.	.	.
4E-\	4cc\ 4ee-	.	4e-/	tou-	.	4cc\	tou-	.	.	.	.
=52	=52	=52	=52	=52	=52	=52	=52	=52	=52	=52	=52
(2F\	(8a/L 8cc	.	4c/	-te	.	4a/	-te	.	1r	.	.
.	8f/	.	.	.	.	.	.	.	.	.	.
.	8cc/	.	4en/	la	.	4g/	la	.	.	.	.
.	8g/J) 8b-	.	.	.	.	.	.	.	.	.	.
4FF/)	(8f\L 8a	.	4f/	vi-	.	4f/	vi-	.	.	.	.
.	8ee-X\ 8gg	.	.	.	.	.	.	.	.	.	.
4r	8dd\ 8ff	.	4f/	-e	.	4f/	-e	.	.	.	.
.	8cc\J) 8ee-	.	.	.	.	.	.	.	.	.	.
=53	=53	=53	=53	=53	=53	=53	=53	=53	=53	=53	=53
!	!	!	!	!	!LO:DY:a	!	!	!LO:DY:a	!	!	!LO:DY:a
4BB-/	8b-\L 8dd	f	2d/	A	f	[4.f/	A	f	(4.b-/	A	f
.	8f\	.	.	.	.	.	.	.	.	.	.
4F\	8r	.	.	.	.	.	.	.	.	.	.
.	8f\J	.	.	.	.	8f/]	.	.	8f/)	.	.
4B-\	(8b-/L 8dd	.	4d/	vous	.	4f/	vous	.	4b-\	vous	.
.	8f/	.	.	.	.	.	.	.	.	.	.
4F\	8cc/	.	4e-/	nos	.	4f/	nos	.	4cc\	nos	.
.	8f/J)	.	.	.	.	.	.	.	.	.	.
=54	=54	=54	=54	=54	=54	=54	=54	=54	=54	=54	=54
4BB-/	8b-\L 8dd	.	4.B-/	chants	.	4.f/	chants	.	4.dd\	chants	.
.	8f\	.	.	.	.	.	.	.	.	.	.
4F\	8r	.	.	.	.	.	.	.	.	.	.
.	8f\J	.	8B-/	d`a-	.	8a/	d`a-	.	8cc\	d`a-	.
4B-\	8b-\L 8dd	.	4B-/	-mour	.	4b-\	-mour	.	4dd\	-mour	.
.	8f\	.	.	.	.	.	.	.	.	.	.
4F\	8cc\ 8ee-	.	8B-/	no-	.	8cc\	no-	.	8ee-\	no-	.
.	8f\J	.	8B-/	-tre	.	8cc\	-tre	.	8ee-\	-tre	.
=55	=55	=55	=55	=55	=55	=55	=55	=55	=55	=55	=55
2BBB-/ 2BB-	8dd\L 8ff	f	2B-^/	eoeur	.	2dd^\	eoeur	.	2ff^\	eoeur	.
.	8f\	.	.	.	.	.	.	.	.	.	.
.	8dd\	.	.	.	.	.	.	.	.	.	.
.	8ff\J	.	.	.	.	.	.	.	.	.	.
4CC/ 4C	4cc\ 4ee-	.	4c/	ô	.	4cc\	ô	.	4ee-\	ô	.
!	!LO:TX:b:i:t=rall.	!	!LO:TX:a:i:t=rall.	!	!	!LO:TX:a:i:t=rall.	!	!	!LO:TX:a:i:t=rall.	!	!
8DD/L 8D	4b-\ 4dd	.	(8d/L	Ma-	.	4b-\	Ma-	.	4dd\	Ma-	.
8EE-/J 8E-	.	.	8e-/J)	.	.	.	.	.	.	.	.
=56	=56	=56	=56	=56	=56	=56	=56	=56	=56	=56	=56
*	*^	*	*	*	*	*	*	*	*	*	*
2FF^>/ 2F	2a/ 2cc	4f\	.	(4f/	-ri-	.	2a^\	-ri-	.	2cc^\	-ri-	.
.	.	4e-\	.	4e-/)	.	.	.	.	.	.	.	.
2BB-;</ 2B-	2b-;/	2d\	.	2d;/	-e	p	2b-;\	-e	p	2b-;\	-e	p
*	*v	*v	*	*	*	*	*	*	*	*	*	*
==	==	==	==	==	==	==	==	==	==	==	==
*-	*-	*-	*-	*-	*-	*-	*-	*-	*-	*-	*-
!!!RDF**kern: > = above
!!!RDF**kern: < = below
!!!system-decoration: [(s1,s2,s3)][(s4,s5)]
!!!ENC: Filip Voros
!!!END: 2022-08-06
!!!ENC: Julita Ruszuk
!!!END: 2022-09-04
